X:1
T:Für Elise
T:WoO 59
T:Ludwig van Beethoven (1770–1827)
%%score { 1 | 2 }
L:1/8
Q:1/4=53
M:3/8
K:C
V:1 treble nm="Piano"
V:2 bass 
V:1
!pp!"^Poco moto" e/^d/ | e/^d/e/B/=d/c/ | A z/ C/E/A/ | B z/ E/^G/B/ | c z/ E/e/^d/ | %5
 e/^d/e/B/=d/c/ | A z/ C/E/A/ | B z/ E/c/B/ |1 A2 :|2 A z/ B/c/d/ |: e3/2 G/f/e/ | d3/2 F/e/d/ | %12
 c3/2 E/d/c/ | B z/ (E/e/) z/ | z/ (e/e'/) z/ z/ ^d/ | e z/ ^d/e/d/ | e/^d/e/B/=d/c/ | %17
 A z/ C/E/A/ | B z/ E/^G/B/ | c z/ E/e/^d/ | e/^d/e/B/=d/c/ | A z/ C/E/A/ | B z/ E/c/B/ |1 %23
 A z/ B/c/d/ :|2 A z/ [Ec]/[Fc]/[EGc]/ ||{/FA} c2 f/>e/ | (ed) _b/>a/ | (a/g/f/e/d/c/) | %28
 _BA{B} A/4G/4A/4B/4 | c2 d/^d/ | e3/2 e/f/A/ | c2 d/>B/ | c/4g/4G/4g/4 A/4g/4B/4g/4 c/4g/4d/4g/4 | %33
 e/4g/4c'/4b/4 a/4g/4f/4e/4 d/4g/4f/4d/4 | c/4g/4G/4g/4 A/4g/4B/4g/4 c/4g/4d/4g/4 | %35
 e/4g/4c'/4b/4 a/4g/4f/4e/4 d/4g/4f/4d/4 | e/4f/4e/4^d/4 e/4B/4e/4d/4 e/4B/4e/4d/4 | e3/2 B/e/^d/ | %38
 e3/2 (B/e/) (^d/ |e/) (^d/e/) (d/e/) (d/ | e/)^d/e/B/=d/c/ | A z/ C/E/A/ | B z/ E/^G/B/ | %43
 c z/ E/e/^d/ | e/^d/e/B/=d/c/ | A z/ C/E/A/ | B z/ E/c/B/ | A z/ B/c/d/ | e3/2 G/f/e/ | %49
 d3/2 F/e/d/ | c3/2 E/d/c/ | B z/ (E/e/) z/ | z/ (e/e'/) z/ z/ (^d/ | e) z/ ^d/e/d/ | %54
 e/^d/e/B/=d/c/ | A z/ C/E/A/ | B z/ E/^G/B/ | c z/ E/e/^d/ | e/^d/e/B/=d/c/ | A z/ C/E/A/ | %60
 B z/ E/c/B/ | A z z | [EG_B^c]3 | [FAd]2 [^ce]/[df]/ | [^Gdf]2 [Gdf] | [A=ce]3 | %66
 [Fd]2 [Ec]/[DB]/ | [C^FA]2 [CA] | [CA][Ec][DB] | [CA]3 | [EG_B^c]3 | [FAd]2 [^ce]/[df]/ | %72
 [df]2 [df] | [df]3 | [G_e]2 [Fd]/[_Ec]/ | [DF_B]2 [DFA] | [DF^G]2 [DFG] | [C=EA]2 z | [EB] z z | %79
!pp! (3A,/C/E/ (3A/c/e/ (3d/c/B/ | (3A/c/e/ (3a/c'/e'/ (3d'/c'/b/ | %81
!8va(! (3a/c'/e'/ (3a'/c''/e''/ (3d''/c''/b'/ | (3_b'/a'/^g'/ (3=g'/!8va)!^f'/=f'/ (3e'/^d'/=d'/ | %83
 (3^c'/=c'/b/ (3_b/a/^g/ (3=g/^f/=f/ | e/^d/e/B/=d/c/ | A z/ C/E/A/ | B z/ E/^G/B/ | c z/ E/e/^d/ | %88
 e/^d/e/B/=d/c/ | A z/ C/E/A/ | B z/ E/c/B/ | A z/ B/c/d/ | e3/2 G/f/e/ | d3/2 F/e/d/ | %94
 c3/2 E/d/c/ | B z/ (E/e/) z/ | z/ (e/e'/) z/ z/ (^d/ | e) z/ ^d/e/d/ | e/^d/e/B/=d/c/ | %99
 A z/ C/E/A/ | B z/ E/^G/B/ | c z/ E/e/^d/ | e/^d/e/B/=d/c/ | A z/ C/E/A/ | B z/ E/c/B/ | A z |] %106
V:2
 z | z3 | A,,/E,/A,/ z/ z | E,,/E,/^G,/ z/ z | A,,/E,/A,/ z/ z | z3 | A,,/E,/A,/ z/ z | %7
 E,,/E,/^G,/ z/ z |1 A,,/E,/A,/ z/ :|2 A,,/E,/A,/ z/ z |: C,/G,/C/ z/ z | G,,/G,/B,/ z/ z | %12
 A,,/E,/A,/ z/ z | E,,/E,/E/ z/ z/[K:treble] (E/ |e/) z/ z/ ^d/e/ z/ | z/ ^d/e/ z/ z | z3 | %17
[K:bass] A,,/E,/A,/ z/ z | E,,/E,/^G,/ z/ z | A,,/E,/A,/ z/ z | z3 | A,,/E,/A,/ z/ z | %22
 E,,/E,/^G,/ z/ z |1 A,,/E,/A,/ z/ z :|2 A,,/E,/A,/ [_B,C]/[A,C]/[G,B,C]/ || F,/A,/C/A,/C/A,/ | %26
 F,/_B,/D/B,/D/B,/ | F,/E/[F,G,_B,]/E/[F,G,B,]/E/ | F,/A,/C/A,/C/A,/ | F,/A,/C/A,/C/A,/ | %30
 E,/A,/C/A,/[D,D]/F,/ | G,/E/G,/F/G,/F/ |[K:treble] [CE] z/ [FG]/[EG]/[DFG]/ | %33
 [CEG][K:bass] [F,A,][G,B,] |[K:treble] C z/ [FG]/[EG]/[DFG]/ | [CE][K:bass] [F,A,][G,B,] | %36
 [^G,B,] z z | z3 | z3 | z3 | z3 | A,,/E,/A,/ z/ z | E,,/E,/^G,/ z/ z | A,,/E,/A,/ z/ z | z3 | %45
 A,,/E,/A,/ z/ z | E,,/E,/^G,/ z/ z | A,,/E,/A,/ z/ z | C,/G,/C/ z/ z | G,,/G,/B,/ z/ z | %50
 A,,/E,/A,/ z/ z | E,,/E,/E/ z/ z/[K:treble] (E/ |e/) z/ z/ (^d/e/) z/ | z/ (^d/e/) z/ z | z3 | %55
[K:bass] A,,/E,/A,/ z/ z | E,,/E,/^G,/ z/ z | A,,/E,/A,/ z/ z | z3 | A,,/E,/A,/ z/ z | %60
 E,,/E,/^G,/ z/ z | A,,/A,,/A,,/A,,/A,,/A,,/ | A,,/A,,/A,,/A,,/A,,/A,,/ | %63
 A,,/A,,/A,,/A,,/A,,/A,,/ | A,,/A,,/A,,/A,,/A,,/A,,/ | A,,/A,,/A,,/A,,/A,,/A,,/ | %66
 [D,,A,,]/[D,,A,,]/[D,,A,,]/[D,,A,,]/[D,,A,,]/[D,,A,,]/ | %67
 [^D,,A,,]/[D,,A,,]/[D,,A,,]/[D,,A,,]/[D,,A,,]/[D,,A,,]/ | %68
 [E,,A,,]/[E,,A,,]/[E,,A,,]/[E,,A,,]/[E,,^G,,]/[E,,G,,]/ | [A,,,A,,]/A,,/A,,/A,,/A,,/A,,/ | %70
 A,,/A,,/A,,/A,,/A,,/A,,/ | A,,/A,,/A,,/A,,/A,,/A,,/ | A,,/A,,/A,,/A,,/A,,/A,,/ | %73
 _B,,/B,,/B,,/B,,/B,,/B,,/ | _B,,/B,,/B,,/B,,/B,,/B,,/ | _B,,/B,,/B,,/B,,/B,,/B,,/ | %76
 =B,,/B,,/B,,/B,,/B,,/B,,/ | C,2 z | [E,^G,] z z | A,,, z [A,CE] | [A,CE] z [A,CE] | %81
 [A,CE] z [A,CE] | [A,CE] z z | z3 | z3 | A,,/E,/A,/ z/ z | E,,/E,/^G,/ z/ z | A,,/E,/A,/ z/ z | %88
 z3 | A,,/E,/A,/ z/ z | E,,/E,/^G,/ z/ z | A,,/E,/A,/ z/ z | C,/G,/C/ z/ z | G,,/G,/B,/ z/ z | %94
 A,,/E,/A,/ z/ z | E,,/E,/E/ z/ z/[K:treble] (E/ |e/) z/ z/ (^d/e/) z/ | z/ (^d/e/) z/ z | z3 | %99
[K:bass] A,,/E,/A,/ z/ z | E,,/E,/^G,/ z/ z | A,,/E,/A,/ z/ z | z3 | A,,/E,/A,/ z/ z | %104
 E,,/E,/^G,/ z/ z | [A,,,A,,] z |] %106

